Numix-GalliumOS/48/actions/tap-create.svg

<?xml version="1.0" encoding="UTF-8" standalone="no"?>
<svg
   xmlns:dc="http://purl.org/dc/elements/1.1/"
   xmlns:cc="http://creativecommons.org/ns#"
   xmlns:rdf="http://www.w3.org/1999/02/22-rdf-syntax-ns#"
   xmlns:svg="http://www.w3.org/2000/svg"
   xmlns="http://www.w3.org/2000/svg"
   xmlns:sodipodi="http://sodipodi.sourceforge.net/DTD/sodipodi-0.dtd"
   xmlns:inkscape="http://www.inkscape.org/namespaces/inkscape"
   width="48"
   height="48"
   viewBox="0 0 48 48"
   id="svg2"
   version="1.1"
   inkscape:version="0.91 r13725"
   sodipodi:docname="tap-create.svg">
  <metadata
     id="metadata16">
    <rdf:RDF>
      <cc:Work
         rdf:about="">
        <dc:format>image/svg+xml</dc:format>
        <dc:type
           rdf:resource="http://purl.org/dc/dcmitype/StillImage" />
      </cc:Work>
    </rdf:RDF>
  </metadata>
  <defs
     id="defs14" />
  <sodipodi:namedview
     pagecolor="#ffffff"
     bordercolor="#666666"
     borderopacity="1"
     objecttolerance="10"
     gridtolerance="10"
     guidetolerance="10"
     inkscape:pageopacity="0"
     inkscape:pageshadow="2"
     inkscape:window-width="1366"
     inkscape:window-height="704"
     id="namedview12"
     showgrid="false"
     inkscape:zoom="1"
     inkscape:cx="-15.864407"
     inkscape:cy="24"
     inkscape:window-x="0"
     inkscape:window-y="27"
     inkscape:window-maximized="1"
     inkscape:current-layer="svg2" />
  <path
     style="fill:#c19553"
     d="M 6.289062,4 C 5.144531,4 4,5.144531 4,6.289062 L 4,41.777344 C 4,42.855469 5.144531,44 6.222656,44 l 35.554688,0 C 42.855469,44 44,42.855469 44,41.777344 L 44,6.222656 C 44,5.144531 42.855469,4 41.777344,4 Z"
     id="path4"
     inkscape:connector-curvature="0" />
  <path
     style="fill:#ffffff;fill-opacity:0.19599998"
     d="M 6.289062,4 C 5.144531,4 4,5.144531 4,6.289062 L 4,20 c 4.441406,0 35.558594,0 40,0 L 44,6.222656 C 44,5.144531 42.855469,4 41.777344,4 Z"
     id="path6"
     inkscape:connector-curvature="0" />
  <path
     style="fill:#ffffff"
     d="m 24,8 -4,0 0,-4 4,0 0,8 -4,0 0,4 4,0 0,8.03125 L 20,24 l 0,8 8,0 0,-8 -4,0.03125 L 24,20 l 4,0 0,-4 -4,0 0,-4 4,0 0,-4 z"
     id="path8"
     inkscape:connector-curvature="0" />
  <path
     inkscape:connector-curvature="0"
     style="fill:#859900"
     d="m 46,30 -8,0 0,-8 -8,0 0,8 -8,0 0,8 8,0 0,8 8,0 0,-8 8,0 z"
     id="path10" />
</svg>

<svg xmlns="http://www.w3.org/2000/svg" viewBox="0 0 48 48">
 <path d="m 6.289 4 c -1.145 0 -2.289 1.145 -2.289 2.289 l 0 35.488 c 0 1.078 1.145 2.223 2.223 2.223 l 35.555 0 c 1.078 0 2.223 -1.145 2.223 -2.223 l 0 -35.555 c 0 -1.078 -1.145 -2.223 -2.223 -2.223" style="fill:#c19553"/>
 <path d="m 6.289 4 c -1.145 0 -2.289 1.145 -2.289 2.289 l 0 13.711 c 4.441 0 35.559 0 40 0 l 0 -13.777 c 0 -1.078 -1.145 -2.223 -2.223 -2.223" style="fill:#fff;fill-opacity:0.196"/>
 <path d="m 24,8 -4,0 0,-4 4,0 0,8 -4,0 0,4 4,0 0,8.03125 L 20,24 l 0,8 8,0 0,-8 -4,0.03125 L 24,20 l 4,0 0,-4 -4,0 0,-4 4,0 0,-4 z" style="fill:#fff"/>
 <path d="m 46 30 -8 0 0 -8 -8 0 0 8 -8 0 0 8 8 0 0 8 8 0 0 -8 8 0 z" style="fill:#859900"/>
</svg>
